X:1
T:Title
%%score { 1 | ( 2 3 ) }
L:1/8
M:4/4
K:Bb
V:1 treble nm="Grand Piano"
V:2 bass 
V:3 bass 
V:1
 z4 z2[Q:1/4=100] [DF]2 | [DB]2 F2 c2 F2 | d3 c [DB]2 [DF]2 | [EG]2 [GB]2 [FA]2 [EG]2 | %4
[M:3/4] [DF]6 |[M:1/4] [DF]2 |[M:4/4] [DB]2 F2 c2 F2 | d3 c [DB]2 [DB]2 | %8
 [FA]2 [Fc]2 [=EG]2 [Ec]2 |[M:3/4] F6 |[M:1/4] F2 |[M:4/4] A2 A2 B2 B2 | c3 B A2 F2 | %13
 [FB]2 [FB]2 c2 c2 |[M:3/4] d6 |[M:1/4] d2 |[M:4/4] e2 c2 d2 [FB]2 | c2 B2 A2 G2 | %18
 F2 B2 [FBd]3 [EFc] |[M:3/4] [DFB]6 |] %20
V:2
 z4 z2 [B,,B,]2 | [B,,F,]2 [D,B,]2 [F,A,F]2 [F,A,]2 | B,4[K:bass] z4 | %3
 [E,B,]2 [E,B,]2 [E,B,]2 [E,B,]2 |[M:3/4] [B,,B,]6 |[M:1/4] [B,,B,]2 | %6
[M:4/4] [B,,F,]2 [D,B,]2 [F,A,F]2 [F,A,]2 | B,4[K:bass] z4 | C,2 [C,A,]2 [C,C]2 [C,B,]2 | %9
[M:3/4] [F,A,]6 |[M:1/4] [F,A,]2 |[M:4/4][K:treble] [F,CF]2 [F,CF]2 [F,DF]2 [F,DF]2 | %12
 E3 D[K:bass] [F,CF]2 [E,C]2 | [D,B,]2 [D,B,]2 [F,A,F]2[K:treble] [F,A,F]2 |[M:3/4] [B,F]6 | %15
[M:1/4] [B,F]2 |[M:4/4] [F,CF]2 [F,A,F]2 [B,F]2[K:bass] [D,B,]2 | [E,G,E]4 [E,G,E]2 [E,B,E]2 | %18
 [F,B,D]2 [F,DF]2 F,3 F, |[M:3/4] B,,6 |] %20
V:3
 x8 | x8 | F3 E[K:bass] [B,,F,]2 [B,,B,]2 | x8 |[M:3/4] x6 |[M:1/4] x2 |[M:4/4] x8 | %7
 F3 E[K:bass] [B,,F,]2 [B,,F,]2 | x8 |[M:3/4] x6 |[M:1/4] x2 |[M:4/4][K:treble] x8 | %12
 [F,F]4[K:bass] z4 | x6[K:treble] x2 |[M:3/4] x6 |[M:1/4] x2 |[M:4/4] x6[K:bass] x2 | x8 | x8 | %19
[M:3/4] x6 |] %20

